X: 15
T:Cooley's Reel
R:Reel
L:1/8
Q:420
M:4/4
K:Edor
 z6 D2 |: "Em"EBBA B2 EB | B2 AB dBAG | "D"FDAD BDAD | FDFA dAFD |
  "Em"EBBA B2 EB | B2 AB defg | "D"afge dBAF |1 "D"DEFD "Em"EGFD :|2"D"DEFD "Em"Eg fg
 |: "Em"eBBB eBgB | eBBB gedB | "D"A2 FA dAFB | ADFA Bcdf |
  "Em"eBBB eBgB | edBc defg | "D"afge dBAF |1 "D"DEFD "Em"Egfg :|2 "D"DEFD "Em"EGFD | E8 |
